X:1
T:James Gibb editions
T:Praeparate corda vestra - Handl
T:#
%%score [ 1 2 3 4 ]
L:1/8
Q:1/4=90
M:2/2
K:C
V:1 treble-8 nm="Tenor I" snm="T I"
V:2 treble-8 nm="Tenor II" snm="T II"
V:3 bass nm="Bass I" snm="B I"
V:4 bass nm="Bass II" snm="B II"
V:1
"^Jacob Handl\n(1550-91)" z8 |"^Praeparate corda vestra" z8 | z8 | c6 B2 | A4 G4 | d2 c2 f4 | %6
w: |||Prae- pa-|ra- te|cor- da ve-|
[M:2/2][K:treble-8] e2 e4 d2 | e2 f2 d4 | e4 g4- | g2 g2 g4 | e4 a4 | g6 g2 | e8- | %13
w: stra; et ser-|vi- te so-|li Do\-|* mi- no,|so- li|Do- mi-|no.|
[M:2/2][K:treble-8] e4 g4 | d2 e2 f2 g2 | (fe ed/c/ d4) | e4 f3 f | f2 e2 e2 e2 | f2 f4 e2 | %19
w: * Et|li- be- ra- bit|vos * * * * *|de ma- ni-|bus i- ni- mi-|co- rum ve-|
 g4 g4 | z2 c2 G2 A2 | B2 c2 d2 e2 | d2 c2 g4 | g2 g4 ^f2 | g4 e4 | f4 (e3 d | cdec d4) | %27
w: stro- rum,|et li- be-|ra- bit vos de|ma- ni- bus|i- ni- mi-|co- rum|ve- stro\- *||
 (e2 dc d4 | e4) z4 | c6 B2 | A4 G4 | d2 c2 f4 | e2 e4 d2 | e2 f2 d4 | e4 g4- | %35
w: rum. * * *||Prae- pa-|ra- te|cor- da ve-|stra; et ser-|vi- te so-|li Do\-|
 g2[Q:1/4=89] g2[Q:1/4=87] g4 |[Q:1/4=84] e4[Q:1/4=82] a4 |[Q:1/4=78] g6[Q:1/4=76] g2 | %38
w: * mi- no,|so- li|Do- mi-|
[Q:1/4=76] g8 |] %39
w: no.|
V:2
 c6 B2 | A4 G4 | c4 e2 d2 | c4 z2 d2- | d2 d2 B2 B2 | A2 A2 d4 |[M:2/2][K:treble-8] G2 c4 B2 | %7
w: Prae- pa-|ra- te|cor- da ve-|stra, prae\-|* pa- ra- te|cor- da ve-|stra; et ser-|
 c4 G4 | z2 e4 d2 | e4 d4 | c4 c2 f2- | f2 e2 d4 | z2 c2 G2 A2 |[M:2/2][K:treble-8] B2 c2 d2 e2 | %14
w: vi- te,|et ser-|vi- te|so- li Do\-|* mi- no.|Et li- be-|ra- bit vos, Et|
 B3 c d2 B2 | A4 z4 | c4 c3 c | c2 c2 c2 c2 | d4 (c3 d) | e2 e2 d4 | e8 | z2 c2 G3 A | %22
w: li- be- ra- bit|vos|de ma- ni-|bus i- ni- mi-|co- rum *|* ve- stro-|rum,|et li- be-|
 B2 c2 d2 e2 | d3 d d4 | d2 d2 e2 c2 | c2 d2 B4 | c2 c4 B2 | A4 G4 | c4 e2 d2 | c4 z2 d2- | %30
w: ra- bit vos de|ma- ni- bus|i- ni- mi- co-|rum ve- stro-|rum. Prae- pa-|ra- te|cor- da ve-|stra, prae\-|
 d2 d2 B2 B2 | A2 A2 d4 | G2 c4 B2 | c4 G4 | z2 e4 d2 | e4 d4 | c4 c2 (f2- | f2 e2) d4 | e8 |] %39
w: * pa- ra- te|cor- da ve-|stra; et ser-|vi- te,|et ser-|vi- te|so- li Do\-|* * mi-|no.|
V:3
 z8 | C6 B,2 | A,4 G,4 | (A,G,E,F, G,2) G,2- | G,2 ^F,2 G,4 | z2 C4 B,2 |[M:2/2] C4 C,2 G,2 | %7
w: |Prae- pa-|ra- te|cor\- * * * * da|* ve- stra;|et ser-|vi- te so-|
 C,2 C4 B,2 | C4 G,4 | z2 C4 B,2 | C2 A,2 C2 D2- | D2 C4 B,2 | C4 z2 C2 |[M:2/2] G,2 A,2 B,2 C2 | %14
w: li, et ser-|vi- te,|et ser-|vi- te so- li|* Do- mi-|no. Et|li- be- ra- bit|
 D2 B,2 A,2 G,2 | (A,G, C4) B,2 | C2 G,2 A,3 A, | A,2 G,2 G,2 G,2 | _B,4 G,4 | C2 (C4 B,2) | %20
w: vos, et li- be-|ra\- * * bit|vos de ma- ni-|bus i- ni- mi-|co- rum|ve- stro\- *|
 C4 z2 C2 | G,2 A,2 B,2 C2 | B,2 A,2 G,3 C | B,4 A,4 | B,2 B,2 (CB,A,G, | A,2 A,4 ^G,2 | %26
w: rum, et|li- be- ra- bit|vos de ma- ni-|bus i-|ni- mi- co\- * * *|* rum ve-|
 (A,G,E,F, G,4) | C2 C4 B,2 | A,4 G,4 | A,G,E,F, G,2) G,2- | G,2 ^F,2 G,4 | z2 C4 B,2 | %32
w: stro\- * * * *|rum. Prae- pa-|ra- te|cor\- * * * * da|* ve- stra;|et ser-|
 C4 C,2 G,2 | C,2 C4 B,2 | C4 G,4 | z2 C4 B,2 | C2 A,2 C2 D2- | D2 C4 B,2 | C8 |] %39
w: vi- te so-|li, et ser-|vi- te,|et ser-|vi- te so- li|* Do- mi-|no.|
V:4
 z8 | z8 | C,6 B,,2 | A,,4 G,,4 | D,4 E,4 | (F,3 E, D,4) |[M:2/2] C,4 z2 G,2- | G,2 F,2 G,4 | %8
w: ||Prae- pa-|ra- te|cor- da|ve\- * *|stra; et|* ser- vi-|
 C,2 C4 B,2 | C4 G,4 | A,4 F,4 | G,6 G,2 | C,8 |[M:2/2] z8 | G,4 D,2 E,2 | F,2 A,2 G,4 | %16
w: te, et ser-|vi- te|so- li|Do- mi-|no.||Et li- be-|ra- bit vos|
 C,4 F,3 F, | F,2 C,2 C,2 C,2 | _B,,4 C,4 | C,4 G,4 | C,4 z4 | z4 z2 C,2 | G,,2 A,,2 B,,2 C,2 | %23
w: de ma- ni-|bus i- ni- mi-|co- rum|ve- stro-|rum,|et|li- be- ra- bit|
 G,,2 G,2 D,3 D, | G,4 C,2 C,2 | F,2 D,2 E,4 | A,,2 C,2 G,,4 | z8 | C,6 B,,2 | A,,4 G,,4 | %30
w: vos de ma- ni-|bus i- ni-|mi- co- rum|ve- stro- rum.||Prae- pa-|ra- te|
 D,4 E,4 | (F,3 E, D,4) | C,4 z2 G,2- | G,2 F,2 G,4 | C,2 C4 B,2 | C4 G,4 | A,4 F,4 | G,6 G,2 | %38
w: cor- da|ve\- * *|stra; et|* ser- vi-|te, et ser-|vi- te|so- li|Do- mi-|
 C,8 |] %39
w: no.|

